X: 3032
T: Mrs WEBSTER
Q:"Reel."
R: Reel.
%R:reel
B: James Kerr "Merry Melodies" v.3 p.6 #32
Z: 2016 John Chambers <jc:trillian.mit.edu>
M: C
L: 1/8
K: Bm
uc |\
dBfB dBBd | cAeA cAAc |\
dBfB gBfB | cAec dBB ::\
f |\
b2(fe) dBBd |
cAed cAAa |\
[1 b2(fe) dBBd | cAeA cBB :|\
[2 bfge fded | cAec cBB |]

%%sep 1 1 500
%%sep 1 1 500

